!!!COM: Palestrina, Giovanni Perluigi da
!!!OPR: Missa Inviolata
!!!OMD: Credo
!!!OTL: Crucifixus
**kern	**kern	**kern
*Itenor	*Icalto	*Icant
!Tenor	!Altus	!Cantus
*clefGv2	*clefG2	*clefG2
*k[b-]	*k[b-]	*k[b-]
*F:ion	*F:ion	*F:ion
*M4/2	*M4/2	*M4/2
=91	=91	=91
0r	0B-	0r
=92	=92	=92
0r	1d	0r
.	1e-	.
=93	=93	=93
0r	1d	0f
.	2r	.
.	[2d	.
=94	=94	=94
0r	2d]	1a
.	2c	.
.	2d	1b-
.	2e	.
=95	=95	=95
0F	2.f	0a
.	4e	.
.	2d	.
.	4c	.
.	4B-	.
=96	=96	=96
1A	1c	2r
.	.	1a
1B-	2r	.
.	[2d	2g
=97	=97	=97
1A	2d]	1a
.	2c	.
2r	2d	2b
[2A	2e	[2cc
=98	=98	=98
2A]	2f	2cc]
2G	2g	2b-
1A	2c	1a
.	[2f	.
=99	=99	=99
2B-	2f]	0g
1c	2e	.
.	1d	.
4B-	.	.
4A	.	.
=100	=100	=100
4B-	1G	2r
4A	.	.
4G	.	2g
4F	.	.
4E	2r	2g
4D	.	.
2E	2c	2g
=101	=101	=101
1F	2c	2a
.	2c	2cc
1r	2d	4b-
.	.	4a
.	2f	4a
.	.	8g
.	.	8f
=102	=102	=102
2r	2e	2.g
2G	2.d	.
.	.	4a
2G	.	1b-
.	4c	.
2G	4d	.
.	4e	.
=103	=103	=103
2A	2f	2a
2c	2.e	2.g
1B-	.	.
.	4d	4f
.	[2d	2d
=104	=104	=104
1A	2d]	2.e
.	4c	.
.	4B	4d
2r	2c#	2e
[2d	2d	2f
=105	=105	=105
2d]	1A	1e
2c#	.	.
2.d	1r	[1f
4c	.	.
=106	=106	=106
2B-	2r	1f]
2A	1f	.
2B-	.	1g
2c	2e	.
=107	=107	=107
0F	2.f	1a
.	4e	.
.	2d	2r
.	2c	[2a
=108	=108	=108
0r	2d	2a]
.	2e	2g
.	2A	2.a
.	[2d	.
.	.	4g
=109	=109	=109
2r	2d]	2f
1A	2c	2e
.	2A	2f
2G	2B	2g
=110	=110	=110
2.A	1c	2e
.	.	2a
4G	.	.
2F	2.c	2a
2E	.	[2g
.	4B-	.
=111	=111	=111
2F	2A	4g]
.	.	4f
2D	4G	1f
.	4F	.
1C	1G	.
.	.	2e
=112	=112	=112
1F	2F	0f
.	2c	.
2r	2c	.
2F	2c	.
=113	=113	=113
2F	1f	1r
2F	.	.
1B-	1d	1f
=114	=114	=114
2A	0r	2f
2.B-	.	2f
.	.	1b-
4A	.	.
2G	.	.
=115	=115	=115
2F	1c	2a
2E	.	2.cc
[1F	2c	.
.	.	4b-
.	2c	4a
.	.	4g
=116	=116	=116
1F]	1f	2a
.	.	2a
2C	2e	2g
2F	[2f	[2a
=117	=117	=117
2A	4f]	4a]
.	4e	4g
2B-	2d	2f
2c	2c	2e
[2d	2B	2d
=118	=118	=118
4d]	1c	2.e
4c	.	.
1c	.	.
.	.	8d
.	.	8c
.	1G	1d
2B	.	.
=119	=119	=119
4c	2r	1e
4B-	.	.
4A	1c	.
4G	.	.
2A	.	1r
2F	[2d	.
=120	=120	=120
2.G	2d]	2r
.	2B-	1g
4F	.	.
2E	1c	.
2F	.	[2a
=121	=121	=121
1D	2.d	2a]
.	.	2f
.	4c	.
1r	2B-	1g
.	2c	.
=122	=122	=122
1r	2A	2.a
.	2.d	.
.	.	4g
2r	.	2f
.	4c	.
[2G	4B	[2g
.	4A	.
=123	=123	=123
2G]	2B	4g]
.	.	4f
1A	2.c	4e
.	.	4d
.	.	2e
.	4B	.
2F	4c	2f
.	4A	.
=124	=124	=124
1G	4B	2.d
.	4c	.
.	2.d	.
.	.	4e
2.A	.	2f
.	4c	.
.	[2c	2e
4G	.	.
=125	=125	=125
2F	2c]	1d
2G	2B	.
2E	[1c	1c
[2A	.	.
=126	=126	=126
4A]	1c]	2r
4G	.	.
2.F	.	1f
.	2r	.
4D	.	.
2E	[2c	2g
=127	=127	=127
1F	2c]	1a
.	2d	.
1C	1e	2g
.	.	2g
=128	=128	=128
1r	2c	2.cc
.	2c	.
.	.	4b-
2r	2.f	4a
.	.	4g
[2F	.	[2a
.	4e	.
=129	=129	=129
2F]	1d	2a]
2G	.	4g
.	.	4f
1A	2c	1e
.	2c	.
=130	=130	=130
2F	1f	1a
2F	.	.
2.c	[1e	1g
4B-	.	.
=131	=131	=131
1A	1e]	2r
.	.	2cc
2G	1r	2b
2A	.	2cc
=132	=132	=132
4F	1f	2.a
4G	.	.
4A	.	.
4B-	.	4a
2c	2e	2g
2F	2f	[2a
=133	=133	=133
0r	2.d	4a]
.	.	4g
.	.	4a
.	4d	4b-
.	2c	1a
.	[2f	.
=134	=134	=134
1c	2f]	0g
.	2e	.
2B	2d	.
2c	[2e	.
=135	=135	=135
2.A	2e]	2r
.	4d	2cc
4A	4c	.
2G	2d	2b
[2A	2c	2cc
=136	=136	=136
4A]	2r	2.a
4G	.	.
4A	2f	.
4B-	.	4a
2c	2e	2g
2F	2f	[2a
=137	=137	=137
2r	2.d	2a]
2B-	.	2f
.	4d	.
2A	2c	1f
2B-	[2d	.
=138	=138	=138
2.G	4d]	2r
.	4c	.
.	4d	2b-
4G	4e	.
2F	2f	2a
4G	2d	2b-
4F	.	.
=139	=139	=139
4G	2e-	2.g
4A	.	.
1B-	2.d	.
.	.	4g
.	.	[1f
.	4B-	.
2A	2c	.
=140	=140	=140
2B-	2d	1f]
2d	1f	.
1c	.	1g
.	2e	.
=141	=141	=141
0F	2d	0a
.	2c	.
.	1f	.
=142	=142	=142
[0c	[0e	[0g
=143	=143	=143
0c]	0e]	0g]
*-	*-	*-
!!!CDT: 1525/^1526/-1594/2/2
!!!OCY: Italia
!!!AGN: Mass (Parody)
!!!AST: renaissance, vocal
!!!ASW: Motet 1532 (Courtois)
!!!PWK: Masses, Book 2
!!!RNB: Cadence finals: C
!!!YOR: Le Opere Complete, v. 4, p. 26
!!!YOO: Rome, Italy: Fratelli Scalera
!!!END: 1992//
!!!EED: John Miller
!!!YEC: Copyright 2000, John Miller
!!!YEN: United States of America
!!!YEM: Rights to all derivative electronic formats reserved.
!!!YEM: Refer to licensing agreement for further details.
!!!YEM: This file must be accompanied by the licensing agreement.
!!!YEM: A copy of the licensing agreement may be found at http://www.music-cog.ohio-state.edu/HumdrumDatabases/Palestrina/license.txt
!!!EMD: converted to Humdrum by Bret Aarden
